X:2109
T:Hofvbyschottis
C:Jörgen Olsson
R:Schottis
Z:Jörgen Olsson  [[jorgen@notvallens.se]]
Q:160
O:Västra Eneby, Östergötland
M:4/4
H:Skriven 2010 till Åsundens Spelemän.
L:1/8
K:D
|: "D"d2dfd2dc | "G"B2BgB2B2 | "A"A2ceg2f2 | edcB"A7"A2A2 |
   "D"d2dfd2dc | "G"B2BgB2B2 | "D/F#"A2df "G"gfed | "A"cdec"D"d2z2:|
|: "G"B2g2g2fe | "D"d2f2f2ed | "A7"c2e2A2Bc | "D"dcde "D7"fedc |
   "G"B2g2g2fe | "D"d2f2f2ed | "A7"c2e2A2Bc | "D"d2"G"d2"D"d2z2:|
(:musicend:)
Ingår i kategorin [[!ackord]]
(:music:)
